src/icons/service-mydatacenter.svg

<svg enable-background="new 0 0 12 14" viewBox="0 0 12 14" xmlns="http://www.w3.org/2000/svg"><path d="m10.6 13.9h-9.5c-.6 0-1-.4-1-1v-11.8c0-.6.5-1 1-1h9.4c.6 0 1 .4 1 1v11.7c.1.6-.4 1.1-.9 1.1z" fill="#00ade4"/><g fill="#fff"><path d="m1.7 2h8.3v2.1h-8.3z"/><path d="m1.7 5.9h8.3v2.1h-8.3z"/><path d="m1.7 9.7h8.3v2.1h-8.3z"/></g></svg>

<svg viewBox="0 0 12 14" xmlns="http://www.w3.org/2000/svg"><path d="M10.6 13.9H1.1c-.6 0-1-.4-1-1V1.1c0-.6.5-1 1-1h9.4c.6 0 1 .4 1 1v11.7c.1.6-.4 1.1-.9 1.1z" fill="#00ade4"/><g fill="#fff"><path d="M1.7 2H10v2.1H1.7zM1.7 5.9H10V8H1.7zM1.7 9.7H10v2.1H1.7z"/></g></svg>
